X: 1314
T: The Rose in the Garden
R:Reel
N:Collected by Early
B:O'Neill's 1314
Z:Transcribed by Trish O'Neil
M:C|
L:1/8
K:A
(AF)|EFAcd2(~dB)|c2(~cA) BcAF|EFAcd2fd|ecBA FAAF|
 EFAcd2(~dB)|c2(~cA) BcAF|EFAc dfaf|ecBA FAA2||
ceecd2(fd)|ceec BAFA|ceecd2(fd)|ecBA FAA2|
ceecd2(fd)|ceec BAFA|cefg abaf|edcBA2|]


